X: 29487
T: Nightingale, The
R: jig
M: 6/8
K: Adorian
|:E|AGA BcA|dcA G|EDE GFG|G,B,D BAG|
EAG ABcA|Bcde|gag ege|dBG A2:|
|:e|aae aae|fge gge|gae aag|fgf ed|
efg efe|ded BGAB|gfg ege|dBG A2:|

